assets/svgs/zoo-grey/ZooGrey2.svg

<svg xmlns="http://www.w3.org/2000/svg" data-name="Layer 1" viewBox="0 0 128 128"><path d="M104.244 95.242h-21.15a4.976 4.976 0 00.706-2.216l2.861-43.605a1.25 1.25 0 10-2.494-.164l-2.861 43.605a2.553 2.553 0 01-2.542 2.38H49.236a2.553 2.553 0 01-2.542-2.38L43.552 44.99h4.073a1.25 1.25 0 000-2.5h-8.169v-3.458h49.088v3.458h-35.8a1.25 1.25 0 000 2.5h37.05a1.25 1.25 0 001.25-1.25v-5.958a1.25 1.25 0 00-1.25-1.25h-31.9a5.02 5.02 0 014.849-3.774h2.514a4.992 4.992 0 013.553 1.472 1.25 1.25 0 001.768-1.768 7.476 7.476 0 00-5.321-2.2h-2.514a7.531 7.531 0 00-7.413 6.274H38.206a1.25 1.25 0 00-1.25 1.25v5.954a1.25 1.25 0 001.25 1.25h2.841L44.2 93.026a4.976 4.976 0 00.706 2.216H28.875a1.25 1.25 0 000 2.5h75.369a1.25 1.25 0 000-2.5zM24.125 95.242h-.369a1.25 1.25 0 000 2.5h.369a1.25 1.25 0 000-2.5z"/><path d="M62.75 54.518v30.47a1.25 1.25 0 002.5 0v-30.47a1.25 1.25 0 00-2.5 0zM52.67 53.27a1.252 1.252 0 00-1.17 1.33l1.9 30.47a1.251 1.251 0 001.247 1.172h.079a1.252 1.252 0 001.17-1.326L54 54.44a1.234 1.234 0 00-1.33-1.17zM75.047 57.82a1.255 1.255 0 00-1.326 1.17l-1.614 25.919a1.252 1.252 0 001.17 1.326h.079a1.251 1.251 0 001.244-1.17l1.613-25.919a1.252 1.252 0 00-1.166-1.326zM76.5 54.593a1.25 1.25 0 10-2.5-.15l-.022.356a1.251 1.251 0 001.173 1.323h.076a1.251 1.251 0 001.247-1.175z"/></svg>

<svg id="Layer_1" data-name="Layer 1" xmlns="http://www.w3.org/2000/svg" viewBox="0 0 128 128"><title>BASKET TRASH</title><path d="M104.244,95.242H83.094a4.976,4.976,0,0,0,.706-2.216l2.861-43.605a1.25,1.25,0,1,0-2.494-.164L81.306,92.862a2.553,2.553,0,0,1-2.542,2.38H49.236a2.553,2.553,0,0,1-2.542-2.38L43.552,44.99h4.073a1.25,1.25,0,0,0,0-2.5H39.456V39.032H88.544V42.49h-35.8a1.25,1.25,0,0,0,0,2.5H89.794a1.25,1.25,0,0,0,1.25-1.25V37.782a1.25,1.25,0,0,0-1.25-1.25h-31.9a5.02,5.02,0,0,1,4.849-3.774h2.514A4.992,4.992,0,0,1,68.81,34.23a1.25,1.25,0,0,0,1.768-1.768,7.476,7.476,0,0,0-5.321-2.2H62.743a7.531,7.531,0,0,0-7.413,6.274H38.206a1.25,1.25,0,0,0-1.25,1.25V43.74a1.25,1.25,0,0,0,1.25,1.25h2.841L44.2,93.026a4.976,4.976,0,0,0,.706,2.216H28.875a1.25,1.25,0,0,0,0,2.5h75.369a1.25,1.25,0,0,0,0-2.5Z"/><path d="M24.125,95.242h-.369a1.25,1.25,0,0,0,0,2.5h.369a1.25,1.25,0,0,0,0-2.5Z"/><path d="M62.75,54.518v30.47a1.25,1.25,0,0,0,2.5,0V54.518a1.25,1.25,0,0,0-2.5,0Z"/><path d="M52.67,53.27A1.252,1.252,0,0,0,51.5,54.6l1.9,30.47a1.251,1.251,0,0,0,1.247,1.172l.079,0a1.252,1.252,0,0,0,1.17-1.326L54,54.44A1.234,1.234,0,0,0,52.67,53.27Z"/><path d="M75.047,57.82a1.255,1.255,0,0,0-1.326,1.17L72.107,84.909a1.252,1.252,0,0,0,1.17,1.326l.079,0A1.251,1.251,0,0,0,74.6,85.065l1.613-25.919A1.252,1.252,0,0,0,75.047,57.82Z"/><path d="M76.5,54.593a1.25,1.25,0,1,0-2.5-.15l-.022.356a1.251,1.251,0,0,0,1.173,1.323l.076,0a1.251,1.251,0,0,0,1.247-1.175Z"/></svg>
